dist/images/envelope.svg

<?xml version="1.0" encoding="UTF-8"?>
<svg width="16px" height="12px" viewBox="0 0 16 12" version="1.1" xmlns="http://www.w3.org/2000/svg" xmlns:xlink="http://www.w3.org/1999/xlink">
    <!-- Generator: Sketch 62 (91390) - https://sketch.com -->
    <title>Contact</title>
    <desc>Created with Sketch.</desc>
    <g id="Design-V1" stroke="none" stroke-width="1" fill="none" fill-rule="evenodd">
        <g id="Process-&amp;-Stories" transform="translate(-1337.000000, -18.000000)" fill="#53C999" fill-rule="nonzero">
            <path d="M1344.99998,26.2500089 C1345.25389,26.2500089 1345.56639,26.1328217 1345.93748,25.8984473 C1346.15232,25.7812601 1346.45506,25.566417 1346.84568,25.2539176 L1346.84568,25.2539176 L1347.13865,25.0488399 C1349.59958,23.2715003 1351.24997,22.0508004 1352.08981,21.3867393 L1352.08981,21.3867393 L1352.23629,21.2695521 C1352.41207,21.1328335 1352.49996,20.9472872 1352.49996,20.7129128 L1352.49996,20.7129128 L1352.49996,20.1562735 C1352.49996,19.7656495 1352.36325,19.4336188 1352.08981,19.1601821 C1351.81637,18.8867454 1351.48434,18.7500268 1351.09372,18.7500268 L1351.09372,18.7500268 L1338.90625,18.7500268 C1338.51562,18.7500268 1338.18359,18.8867454 1337.91016,19.1601821 C1337.63672,19.4336188 1337.5,19.7656495 1337.5,20.1562735 L1337.5,20.1562735 L1337.5,20.7129128 C1337.5,20.9472872 1337.58789,21.1328335 1337.76367,21.2695521 L1337.76367,21.2695521 L1337.96875,21.4160361 C1338.82812,22.0800972 1340.45898,23.2910316 1342.86132,25.0488399 L1342.86132,25.0488399 L1343.15428,25.2539176 C1343.54491,25.566417 1343.84764,25.7812601 1344.06248,25.8984473 C1344.43358,26.1328217 1344.74608,26.2500089 1344.99998,26.2500089 Z M1351.09372,30 C1351.48434,30 1351.81637,29.8632814 1352.08981,29.5898447 C1352.36325,29.316408 1352.49996,28.9843773 1352.49996,28.5937534 L1352.49996,28.5937534 L1352.49996,22.6172051 C1352.49996,22.5390801 1352.46578,22.4804865 1352.39743,22.4414243 C1352.32907,22.402362 1352.26559,22.4121275 1352.207,22.4707211 C1351.50387,23.0175949 1349.99997,24.1211076 1347.69529,25.7812601 L1347.69529,25.7812601 L1347.40232,26.0156345 C1346.9531,26.3671962 1346.58201,26.621102 1346.28904,26.7773514 C1345.82029,27.0507881 1345.39061,27.1875067 1344.99998,27.1875067 C1344.60936,27.1875067 1344.17967,27.060554 1343.71092,26.8066482 C1343.43749,26.6503988 1343.06639,26.396493 1342.59764,26.0449313 L1342.59764,26.0449313 L1342.30468,25.7812601 C1339.9414,24.062514 1338.4375,22.9590013 1337.79297,22.4707211 C1337.73437,22.4316588 1337.6709,22.4267759 1337.60254,22.4560727 C1337.53418,22.4853695 1337.5,22.5390801 1337.5,22.6172051 L1337.5,22.6172051 L1337.5,28.5937534 C1337.5,28.9843773 1337.63672,29.316408 1337.91016,29.5898447 C1338.18359,29.8632814 1338.51562,30 1338.90625,30 L1338.90625,30 L1351.09372,30 Z" id="Contact"></path>
        </g>
    </g>
</svg>

<svg width="16" height="12" viewBox="0 0 16 12" version="1.1" xmlns="http://www.w3.org/2000/svg"><g id="Design-V1" stroke="none" stroke-width="1" fill="none" fill-rule="evenodd"><g id="Process-&amp;-Stories" transform="translate(-1337 -18)" fill="#53C999" fill-rule="nonzero"><path d="M1345 26.25c.254 0 .566-.117.937-.352.215-.117.518-.332.909-.644l.293-.205c2.46-1.777 4.111-2.998 4.95-3.662l.147-.117a.668.668 0 00.264-.557v-.557c0-.39-.137-.722-.41-.996a1.356 1.356 0 00-.996-.41h-12.188c-.39 0-.722.137-.996.41a1.36 1.36 0 00-.41.996v.557c0 .234.088.42.264.557l.205.146c.86.664 2.49 1.875 4.892 3.633l.293.205c.39.312.694.527.908.644.372.235.684.352.938.352zm6.094 3.75c.39 0 .722-.137.996-.41a1.36 1.36 0 00.41-.996v-5.977a.19.19 0 00-.103-.176c-.068-.039-.131-.029-.19.03-.703.547-2.207 1.65-4.512 3.31l-.293.235c-.449.351-.82.605-1.113.761-.469.274-.898.41-1.289.41-.39 0-.82-.126-1.29-.38-.273-.157-.644-.41-1.112-.762l-.293-.264a387.963 387.963 0 01-4.512-3.31.19.19 0 00-.19-.015c-.069.03-.103.083-.103.161v5.977c0 .39.137.722.41.996.274.273.606.41.996.41h12.188z" id="Contact"/></g></g></svg>
